X:1
T:Title
%%score { ( 1 3 ) | 2 }
L:1/8
M:6/8
K:Ab
V:1 treble nm="Grand Piano"
V:3 treble 
V:2 bass 
V:1
 z3[Q:1/4=113] [CA]2 [DB] | [Ec]2 [Ec] [DB]2 [CA] | [Ec]2 [Ec] [EB]2 [EA] | [DB]2 [FA] [EG]2 [DF] | %4
 [CE]3- [CE]2 [CA] | G2 G F2 E | G2 G F2 E | [CE]2 [CE] [EA]2 B | c3 [CA]2 [DB] | %9
 [Ec]2 [Ec] [DB]2 [CA] | [Ec]2 [Ec] [EB]2 [EA] | [DB]2 [FA] [EG]2 [DF] | [CE]3 [CE]2 [CE] | %13
 [DF]2 [EG] [FA]2 [FB] |[M:7/8] c2 d e3 [Fd] |[M:3/4] c2 B A2 G |[M:5/8] [CEA]-[CEA]- [CEA]3 | %17
[M:1/8] c |[M:3/4] e6 | e6 | F2 [FA] [EG]2 [DF] | [DF] [CE]3 z A | c4 z2 | c6 | A2 F [=DB]2 [Dc] | %25
 B3 c2 d | e3 e3 | c3 [EA]3 | [DB]2 [FA] [EG]2 [DF] | [DF]2 [CE] [CE]2 [CE] | %30
 [DF]2 [EG] [FA]2 [FB] |[M:15/16] c3 [Fd]3/2- [Fd]3 |[M:3/4] c2 B A2 G |[M:9/16] [CEA]4- [CEA]/ |] %34
V:2
 z3 [A,,E,]2 [A,,E,] | [A,,A,]2 [A,,A,] [A,,E,]2 [A,,E,] | [A,,A,]2 [A,,A,] [B,,G,]2 [C,A,] | %3
 [D,F,]2 [D,A,] [D,A,]2 [D,A,] | [A,,A,]3- [A,,A,]2 [A,,A,] | [E,B,D]2 [E,B,D] [E,A,D]2 [E,G,D] | %6
 [E,B,D]2 [E,B,D] [E,A,D]2 [E,G,D] | [A,,A,]2 [A,,A,] [C,A,]2 [E,G,E] | [A,E]3 [A,,E,]2 [A,,E,] | %9
 [A,,A,]2 [A,,A,] [A,,E,]2 [A,,E,] | [A,,A,]2 [A,,A,] [B,,G,]2 [C,A,] | %11
 [D,F,]2 [D,A,] [D,A,]2 [D,A,] | [A,,A,]3 [A,,A,]2 [A,,A,] | [D,A,]2 [D,A,] [D,A,]2 [D,A,] | %14
[M:7/8] [A,E]2 [A,B,E] [A,CE]3 [D,A,] |[M:3/4] [E,A,E]2 [E,DE] [E,CE]2 [E,B,E] | %16
[M:5/8] A,,-A,,- A,,3 |[M:1/8] z |[M:3/4] z2 [A,C] .[A,C]3 | z2 [A,C] [A,C]2 [C,A,] | %20
 [D,A,D]2 [D,A,] [D,A,]2 [D,A,] | [A,,A,] [A,,A,]3 z2 | z2 [C,G,] .[F,A,F]3 | z2 [C,G,] [F,A,]2 C | %24
 A,2 F, [B,,A,]2 [B,,A,] | [E,G,E]3 [A,E]2 [A,B,E] | [A,CE]3 [A,CE]3 | [A,E]3 [C,A,]3 | %28
 [D,F,]2 [D,A,] [D,A,]2 [D,A,] | [A,,A,]2 [A,,A,] [A,,A,]2 [A,,A,] | %30
 [D,A,]2 [D,A,] [D,A,]2 [D,A,] |[M:15/16] [A,E]3 [D,A,]3/2- [D,A,]3 | %32
[M:3/4] [E,A,E]2 [E,DE] [E,CE]2 [E,B,E] |[M:9/16] A,,4- A,,/ |] %34
V:3
 x6 | x6 | x6 | x6 | x6 | x6 | x6 | x6 | x6 | x6 | x6 | x6 | x6 | x6 |[M:7/8] x7 |[M:3/4] x6 | %16
[M:5/8] x5 |[M:1/8] x |[M:3/4] z2 E A2 c | z2 E A2 E | x6 | x6 | z2 =E c2 G | z2 =E F2 c | x6 | %25
 x6 | x6 | x6 | x6 | x6 | x6 |[M:15/16] x15/2 |[M:3/4] x6 |[M:9/16] x9/2 |] %34

